public/img/person-walk.svg

<svg
	width="200"
	height="380"
	viewBox="0 0 214 496"
	fill="none"
	xmlns="http://www.w3.org/2000/svg"
>
	<path
		d="M107.507 480.918L93.6212 480.917L87.0142 427.353L107.51 427.354L107.507 480.918Z"
		fill="#FFB6B6"
	/>
	<path
		d="M107.996 495.404L65.293 495.403V494.862C65.2933 490.454 67.0446 486.227 70.1616 483.11C73.2787 479.993 77.5062 478.242 81.9143 478.241L89.7156 472.324L104.269 478.242L107.997 478.242L107.996 495.404Z"
		fill="#2F2E41"
	/>
	<path
		d="M204.84 455.374L193.481 463.36L157.267 423.345L174.033 411.556L204.84 455.374Z"
		fill="#FFB6B6"
	/>
	<path
		d="M213.573 466.942L178.641 491.504L178.33 491.062C175.795 487.456 174.796 482.991 175.553 478.648C176.309 474.306 178.76 470.441 182.366 467.906L182.367 467.905L185.344 458.577L200.653 455.048L203.703 452.904L213.573 466.942Z"
		fill="#2F2E41"
	/>
	<path
		d="M162.835 214.441L163.989 216.906C171.573 233.109 173.512 251.222 170.565 268.868C170.346 269.557 170.388 270.302 170.683 270.962C172.51 273.106 169.643 282.421 167.999 287.622L166.517 296.819C166.517 296.819 168.974 305.361 165.242 304.734C161.51 304.106 167.067 313.217 163.508 315.5L154.274 372.821L192.799 436.316L178.53 457.005L121.456 383.523L120.743 317.174L112.182 370.681L111.468 454.865L85.5104 452.106L76 370.488L85.0716 257.615L99.3401 208.675L162.835 214.441Z"
		fill="#2F2E41"
	/>
	<path
		d="M2.0737 194.845C3.41968 193.342 5.29886 192.424 7.31143 192.286C9.324 192.148 11.3111 192.8 12.8499 194.105C13.1585 194.375 13.4442 194.67 13.7041 194.987L39.1432 185.889L48.3018 197.173L12.1058 205.869C10.707 206.845 9.02439 207.33 7.32071 207.249C5.61703 207.169 3.98808 206.526 2.68802 205.422C1.9543 204.787 1.35287 204.013 0.918123 203.145C0.48338 202.277 0.223844 201.333 0.154268 200.365C0.0846919 199.396 0.206484 198.424 0.512666 197.503C0.818849 196.582 1.30342 195.73 1.93875 194.997C1.98303 194.946 2.02801 194.895 2.0737 194.845Z"
		fill="#FFB6B6"
	/>
	<path
		d="M145 67.4883L124 68.4883L113.958 85.8367L99.6894 90.1172L87.5612 120.081L95 213.488C95 213.488 96.4911 219.138 93.7455 218.313C91 217.488 92.1191 224.569 92.1191 224.569L82 263.488L174 255.488L168.892 214.253C168.892 214.253 175.994 214.482 171 209.488C166.006 204.494 163.577 206.085 168.375 200.181C173.172 194.277 173.885 189.997 173.885 189.997L176.026 160.746L179.554 119.581C180.114 113.049 179.042 106.48 176.433 100.465C173.825 94.4506 169.762 89.1786 164.611 85.1233L145 67.4883Z"
		fill="#E6622E"
	/>
	<path
		d="M194.563 271.391C195.691 269.718 196.122 267.671 195.764 265.686C195.405 263.701 194.287 261.934 192.645 260.761C192.308 260.527 191.952 260.323 191.581 260.148L194.181 233.256L181 227.136L181.421 264.359C180.816 265.954 180.757 267.705 181.252 269.337C181.748 270.969 182.769 272.391 184.158 273.382C184.953 273.938 185.85 274.332 186.798 274.541C187.746 274.75 188.725 274.771 189.681 274.602C190.637 274.432 191.55 274.076 192.368 273.554C193.186 273.032 193.893 272.354 194.449 271.559C194.488 271.503 194.526 271.447 194.563 271.391Z"
		fill="#FFB6B6"
	/>
	<path
		d="M174.673 96.7869C174.673 96.7869 204.914 168.825 204 196.488L194 247.488L180 246.488L181 200.488C186.108 195.266 164.729 165.769 157.682 145.01L174.673 96.7869Z"
		fill="#E6622E"
	/>
	<path
		d="M101.116 89.4038C101.116 89.4038 63.5744 157.763 49.0363 177.868L38 186.488V200.488L63.6615 201.055C63.6615 201.055 101.83 169.307 100.403 153.612C98.976 137.917 101.116 89.4038 101.116 89.4038Z"
		fill="#E6622E"
	/>
	<path
		d="M134.11 62.6712C148.819 62.6712 160.742 50.7477 160.742 36.0394C160.742 21.3311 148.819 9.40771 134.11 9.40771C119.402 9.40771 107.479 21.3311 107.479 36.0394C107.479 50.7477 119.402 62.6712 134.11 62.6712Z"
		fill="#FFB6B6"
	/>
	<path
		d="M144.401 60.4881C136.758 60.2373 136.064 58.2187 128.422 57.968C125.989 57.8882 123.117 57.5546 121.941 55.423C121.103 53.9048 121.488 51.993 122.226 50.4236C123.098 48.9257 123.884 47.3795 124.58 45.7923C124.999 44.5476 125.109 43.2195 124.9 41.9227C124.691 40.626 124.17 39.3996 123.381 38.3496C122.592 37.2996 121.559 36.4576 120.371 35.8963C119.184 35.335 117.878 35.0713 116.565 35.128C114.24 35.2285 112.055 36.3221 109.736 36.522C106.556 36.7961 99.5222 26.2943 100.987 23.4575C102.412 20.6962 105.281 18.6128 105.732 15.5381C106.026 13.5271 105.196 11.529 105.083 9.49965C104.915 6.4907 112.542 13.2752 111.145 10.6049C107.719 4.05433 140.008 -4.06662 145.324 4.13853C147.311 7.20514 150.852 6.99597 154.008 8.83766C156.076 10.0447 161.299 14.209 162.487 16.8045C163.578 19.453 164.093 22.3031 163.999 25.166C164.047 38.4802 162.019 50.7273 151.279 58.5973"
		fill="#2F2E41"
	/>
</svg>

<svg xmlns="http://www.w3.org/2000/svg" width="200" height="380" fill="none" viewBox="0 0 214 496"><path fill="#FFB6B6" d="m107.507 480.918-13.886-.001-6.607-53.564 20.496.001-.003 53.564Z"/><path fill="#2F2E41" d="m107.996 495.404-42.703-.001v-.541a16.621 16.621 0 0 1 16.621-16.621l7.802-5.917 14.553 5.918h3.728l-.001 17.162Z"/><path fill="#FFB6B6" d="m204.84 455.374-11.359 7.986-36.214-40.015 16.766-11.789 30.807 43.818Z"/><path fill="#2F2E41" d="m213.573 466.942-34.932 24.562-.311-.442a16.622 16.622 0 0 1 4.036-23.156l.001-.001 2.977-9.328 15.309-3.529 3.05-2.144 9.87 14.038ZM162.835 214.441l1.154 2.465c7.584 16.203 9.523 34.316 6.576 51.962a2.945 2.945 0 0 0 .118 2.094c1.827 2.144-1.04 11.459-2.684 16.66l-1.482 9.197s2.457 8.542-1.275 7.915c-3.732-.628 1.825 8.483-1.734 10.766l-9.234 57.321 38.525 63.495-14.269 20.689-57.074-73.482-.713-66.349-8.561 53.507-.714 84.184-25.958-2.759L76 370.488l9.072-112.873 14.268-48.94 63.495 5.766Z"/><path fill="#FFB6B6" d="M2.074 194.845a7.742 7.742 0 0 1 10.776-.74c.309.27.594.565.854.882l25.44-9.098 9.158 11.284-36.196 8.696a7.721 7.721 0 0 1-9.418-.447 7.385 7.385 0 0 1-2.534-5.057 7.392 7.392 0 0 1 1.92-5.52Z"/><path fill="#E6622E" d="m145 67.488-21 1-10.042 17.349-14.269 4.28-12.128 29.964L95 213.488s1.491 5.65-1.254 4.825c-2.746-.825-1.627 6.256-1.627 6.256L82 263.488l92-8-5.108-41.235s7.102.229 2.108-4.765-7.423-3.403-2.625-9.307c4.797-5.904 5.51-10.184 5.51-10.184l2.141-29.251 3.528-41.165a39.549 39.549 0 0 0-14.943-34.458L145 67.488Z"/><path fill="#FFB6B6" d="M194.563 271.391a7.746 7.746 0 0 0-1.918-10.63 7.394 7.394 0 0 0-1.064-.613l2.6-26.892-13.181-6.12.421 37.223a7.72 7.72 0 0 0 2.737 9.023 7.378 7.378 0 0 0 5.523 1.22 7.405 7.405 0 0 0 4.882-3.211Z"/><path fill="#E6622E" d="M174.673 96.787s30.241 72.038 29.327 99.701l-10 51-14-1 1-46c5.108-5.222-16.271-34.719-23.318-55.478l16.991-48.223ZM101.116 89.404s-37.542 68.359-52.08 88.464L38 186.488v14l25.661.567s38.169-31.748 36.742-47.443c-1.427-15.695.713-64.208.713-64.208Z"/><path fill="#FFB6B6" d="M134.11 62.671c14.709 0 26.632-11.923 26.632-26.632 0-14.708-11.923-26.631-26.632-26.631-14.708 0-26.631 11.923-26.631 26.631 0 14.709 11.923 26.632 26.631 26.632Z"/><path fill="#2F2E41" d="M144.401 60.488c-7.643-.25-8.337-2.27-15.979-2.52-2.433-.08-5.305-.413-6.481-2.545-.838-1.518-.453-3.43.285-5a45.623 45.623 0 0 0 2.354-4.63 8.093 8.093 0 0 0-4.209-9.897 8.086 8.086 0 0 0-3.806-.768c-2.325.1-4.51 1.194-6.829 1.394-3.18.274-10.214-10.228-8.749-13.064 1.425-2.762 4.294-4.845 4.745-7.92.294-2.01-.536-4.009-.649-6.038-.168-3.01 7.459 3.775 6.062 1.105-3.426-6.55 28.863-14.672 34.179-6.466 1.987 3.066 5.528 2.857 8.684 4.699 2.068 1.207 7.291 5.371 8.479 7.967a20.211 20.211 0 0 1 1.512 8.361c.048 13.314-1.98 25.561-12.72 33.431"/></svg>
